wp-content/themes/morota-portfolio/assets/img/camera.svg

<svg height="256" viewBox="0 0 512 512" width="256" xmlns="http://www.w3.org/2000/svg"><g fill="#4b4b4b"><path d="m382.336 140.267h61.042v43.609h-61.042z"/><path d="m256.004 228.23c-31.976 0-57.904 25.919-57.904 57.904 0 31.968 25.928 57.895 57.904 57.895 31.968 0 57.896-25.927 57.896-57.895 0-31.985-25.928-57.904-57.896-57.904z"/><path d="m0 78.266v131.757 27.026 196.686h512v-196.686-27.026-131.757zm78.433 196.351c-10.19 0-18.454-8.265-18.454-18.446 0-10.198 8.264-18.462 18.454-18.462 10.191 0 18.454 8.264 18.454 18.462 0 10.182-8.263 18.446-18.454 18.446zm177.571 100.677c-49.252 0-89.167-39.924-89.167-89.159 0-49.261 39.915-89.168 89.167-89.168 49.244 0 89.168 39.907 89.168 89.168 0 49.234-39.924 89.159-89.168 89.159zm221.408-172.842h-132.476c-22.288-23.676-53.842-38.553-88.932-38.553-35.097 0-66.643 14.877-88.94 38.553h-132.468v-89.59h442.816z"/></g></svg>

<!--?xml version="1.0" encoding="utf-8"?-->
<!-- Generator: Adobe Illustrator 18.1.1, SVG Export Plug-In . SVG Version: 6.00 Build 0)  -->

<svg version="1.1" id="_x32_" xmlns="http://www.w3.org/2000/svg" xmlns:xlink="http://www.w3.org/1999/xlink" x="0px" y="0px" viewBox="0 0 512 512" style="width: 256px; height: 256px; opacity: 1;" xml:space="preserve">
<style type="text/css">
	.st0{fill:#4B4B4B;}
</style>
<g>
	<rect x="382.336" y="140.267" class="st0" width="61.042" height="43.609"></rect>
	<path class="st0" d="M256.004,228.23c-31.976,0-57.904,25.919-57.904,57.904c0,31.968,25.928,57.895,57.904,57.895
		c31.968,0,57.896-25.927,57.896-57.895C313.9,254.149,287.972,228.23,256.004,228.23z"></path>
	<path class="st0" d="M0,78.266v131.757v27.026v196.686h512V237.049v-27.026V78.266H0z M78.433,274.617
		c-10.19,0-18.454-8.265-18.454-18.446c0-10.198,8.264-18.462,18.454-18.462c10.191,0,18.454,8.264,18.454,18.462
		C96.887,266.353,88.624,274.617,78.433,274.617z M256.004,375.294c-49.252,0-89.167-39.924-89.167-89.159
		c0-49.261,39.915-89.168,89.167-89.168c49.244,0,89.168,39.907,89.168,89.168C345.172,335.369,305.248,375.294,256.004,375.294z
		 M477.412,202.452H344.936c-22.288-23.676-53.842-38.553-88.932-38.553c-35.097,0-66.643,14.877-88.94,38.553H34.596v-89.59
		h442.816V202.452z"></path>
</g>
</svg>
